X:20041
T: Oor Auld Guidman Is Noo Awa'
B: K\"ohler's Repository
B: RSCDS 20-4
R: strathspey
M: 4/4
L: 1/8
%--------------------
K: G
D | "G"G2  G>A B>A    B>e |     d>B A>G "C"E2- EG \
  | "G"D>B G>d B>g "C"e>c | "D7"d<B A>d "G"G2- G ||
D | "G"G2  G>A B>A    B>e |     d>B A>G "C"E2- EG \
  | "G"(3DGD "C"C>G "G"B,>G "Am"A,>e | "D7"d<B A>d "G"G2- G |]
f | "G"g>e "D7"f>d "C"e>d "G"B>e |    d<B     A>G "C"E3  f  \
  | "G"g>d  "C"e>c "G"d>B "C"g>e | "G"d<B "D7"A>d "G"G2- G ||
f | "G"(3gfe "D7"(3fed "C"(3edc  "G"B>e  |     d<B A>G "C"E2- EG \
  | "G"(3DGD  "C"(3CGC "G"B,GB, "Am"A,>e | "D7"d<B A>d "G"G2- G |]
